build/flags/Suriname.svg

<svg xmlns="http://www.w3.org/2000/svg" fill="none" viewBox="0 0 28 28" focusable="false"><defs><filter id="Suriname_svg__a"><feColorMatrix values="0 0 0 0 1 0 0 0 0 1 0 0 0 0 1 0 0 0 1 0"/></filter></defs><mask id="Suriname_svg__b" width="28" height="20" x="0" y="4" maskUnits="userSpaceOnUse"><g filter="url(#Suriname_svg__a)"><rect width="28" height="20" y="4" fill="#FFF" rx="3"/><rect width="27.5" height="19.5" x=".25" y="4.25" stroke="#F5F5F5" stroke-width=".5" rx="2.75"/></g></mask><path fill="none" d="M0 0H28V28H0z"/><rect width="28" height="20" y="4" fill="#FFF" rx="3"/><rect width="27.5" height="19.5" x=".25" y="4.25" stroke="#D6D8DD" stroke-width=".5" rx="2.75"/><g mask="url(#Suriname_svg__b)"><path fill="#43924C" fill-rule="evenodd" d="M0 8L28 8L28 4L0 4L0 8Z"/><path d="M28 8L28 4L0 4L0 8L28 8Z"/><path fill="#43924C" fill-rule="evenodd" d="M0 24L28 24L28 20L0 20L0 24Z"/><path d="M28 24L28 20L0 20L0 24L28 24Z"/><path fill="#CD153A" fill-rule="evenodd" d="M0 17.3333L28 17.3333L28 10.6666L0 10.6666L0 17.3333Z"/><path d="M28 17.3333L28 10.6666L0 10.6666L0 17.3333L28 17.3333Z"/><path fill="#F5D24B" fill-rule="evenodd" d="M14 15.7L12.0407 17.0301L12.7002 14.7557L10.8298 13.3033L13.1967 13.2277L14 11L14.8033 13.2277L17.1702 13.3033L15.2998 14.7557L15.9593 17.0301L14 15.7Z"/><path d="M12.0407 17.0301L12.7002 14.7557L10.8298 13.3033L13.1967 13.2277L14 11L14.8033 13.2277L17.1702 13.3033L15.2998 14.7557L15.9593 17.0301L14 15.7L12.0407 17.0301Z"/></g></svg>

<svg xmlns="http://www.w3.org/2000/svg" fill="none" viewBox="0 0 28 28" focusable="false"><path fill="none" d="M0 0h28v28H0z"/><rect width="28" height="20" y="4" fill="#FFF" rx="3"/><rect width="27.5" height="19.5" x=".25" y="4.25" stroke="#D6D8DD" stroke-width=".5" rx="3"/><mask id="Suriname_svg__a" width="28" height="20" x="0" y="4" mask-type="alpha" maskUnits="userSpaceOnUse"><rect width="28" height="20" y="4" fill="#FFF" rx="3"/><rect width="27.5" height="19.5" x=".25" y="4.25" stroke="#F5F5F5" stroke-width=".5" rx="3"/></mask><g mask="url(#Suriname_svg__a)"><path fill="#43924C" fill-rule="evenodd" d="M0 8h28V4H0z"/><path d="M28 8V4H0v4z"/></g><g mask="url(#Suriname_svg__a)"><path fill="#43924C" fill-rule="evenodd" d="M0 24h28v-4H0z"/><path d="M28 24v-4H0v4z"/></g><g mask="url(#Suriname_svg__a)"><path fill="#CD153A" fill-rule="evenodd" d="M0 17.33h28v-6.67H0z"/><path d="M28 17.33v-6.67H0v6.67z"/></g><g mask="url(#Suriname_svg__a)"><path fill="#F5D24B" fill-rule="evenodd" d="m14 15.7-1.96 1.33.66-2.28-1.88-1.45 2.37-.08L14 11l.8 2.22 2.37.08-1.88 1.45.66 2.28z"/><path d="m12.04 17.03.66-2.28-1.88-1.45 2.37-.08L14 11l.8 2.22 2.37.08-1.88 1.45.66 2.28L14 15.7z"/></g></svg>
